img/icons/arrow-prev-blue.svg

<svg width="20" height="20" viewBox="0 0 20 20" fill="none" xmlns="http://www.w3.org/2000/svg">
<path d="M14.1407 4.26374V2.75398C14.1407 2.62312 13.9903 2.55085 13.8887 2.63093L5.08401 9.50788C5.0092 9.56606 4.94867 9.64055 4.90703 9.72568C4.8654 9.81081 4.84375 9.90433 4.84375 9.9991C4.84375 10.0939 4.8654 10.1874 4.90703 10.2725C4.94867 10.3576 5.0092 10.4321 5.08401 10.4903L13.8887 17.3673C13.9922 17.4473 14.1407 17.3751 14.1407 17.2442V15.7344C14.1407 15.6387 14.0957 15.5469 14.0215 15.4884L6.99026 10.0001L14.0215 4.50984C14.0957 4.45124 14.1407 4.35945 14.1407 4.26374Z" fill="#00a6ed"/>
</svg>

<svg width="20" height="20" fill="none" xmlns="http://www.w3.org/2000/svg"><path d="M14.14 4.264v-1.51c0-.13-.15-.203-.251-.123L5.084 9.508a.622.622 0 000 .982l8.805 6.877c.103.08.252.008.252-.123v-1.51a.316.316 0 00-.12-.246L6.991 10l7.03-5.49a.316.316 0 00.12-.246z" fill="#00a6ed"/></svg>
